svgs/thin/cart-flatbed-boxes.svg

<svg xmlns="http://www.w3.org/2000/svg" viewBox="0 0 640 512"><!--! Font Awesome Pro 6.3.0 by @fontawesome - https://fontawesome.com License - https://fontawesome.com/license (Commercial License) Copyright 2023 Fonticons, Inc. --><path d="M632 416H128V72C128 29.59 101.7 0 64 0H8C3.594 0 0 3.594 0 8S3.594 16 8 16H64c33.16 0 48 28.12 48 56v352c0 4.406 3.594 8 8 8h52.46C164.8 440.5 160 451.7 160 464C160 490.5 181.5 512 208 512S256 490.5 256 464c0-12.35-4.797-23.49-12.46-32h216.9c-7.664 8.506-12.43 19.65-12.43 32c0 26.51 21.49 48 47.99 48c26.51 0 48.01-21.49 48.01-48c0-12.35-4.828-23.49-12.49-32H632c4.406 0 8-3.596 8-8.002S636.4 416 632 416zM208 496c-17.64 0-32-14.36-32-32s14.36-32 32-32s32 14.36 32 32S225.6 496 208 496zM496 496c-17.64 0-32-14.36-32-32s14.36-32 32-32s32 14.36 32 32S513.6 496 496 496zM224 352h128c17.67 0 32-14.33 32-32V96c0-17.67-14.33-32-32-32H224C206.3 64 192 78.33 192 96v224C192 337.7 206.3 352 224 352zM208 96c0-8.822 7.178-16 16-16h128c8.822 0 16 7.178 16 16v224c0 8.822-7.178 16-16 16H224c-8.822 0-16-7.178-16-16V96zM448 352h128c17.67 0 32-14.33 32-32V256c0-17.67-14.33-32-32-32h-128c-17.67 0-32 14.33-32 32v64C416 337.7 430.3 352 448 352zM432 256c0-8.822 7.178-16 16-16h128c8.824 0 16 7.178 16 16v64c0 8.822-7.176 16-16 16h-128c-8.822 0-16-7.178-16-16V256zM448 192h64c17.67 0 32-14.33 32-32V96c0-17.67-14.33-32-32-32h-64c-17.67 0-32 14.33-32 32v64C416 177.7 430.3 192 448 192zM432 96c0-8.822 7.178-16 16-16h64c8.822 0 16 7.178 16 16v64c0 8.822-7.178 16-16 16h-64c-8.822 0-16-7.178-16-16V96z"/></svg>

<svg xmlns="http://www.w3.org/2000/svg" viewBox="0 0 640 512"><!-- Font Awesome Pro 6.0.0-alpha2 by @fontawesome - https://fontawesome.com License - https://fontawesome.com/license (Commercial License) --><path d="M632 416H128V72C128 29.594 101.688 0 64 0H8C3.594 0 0 3.594 0 8S3.594 16 8 16H64C97.156 16 112 44.125 112 72V424C112 428.406 115.594 432 120 432H172.461C164.797 440.506 160 451.65 160 464C160 490.51 181.492 512 208 512S256 490.51 256 464C256 451.65 251.203 440.506 243.543 432H460.461C452.797 440.506 448 451.65 448 464C448 490.51 469.492 512 496 512S544 490.51 544 464C544 451.65 539.203 440.506 531.543 432H632C636.406 432 640 428.406 640 424S636.406 416 632 416ZM208 496C190.355 496 176 481.645 176 464S190.355 432 208 432S240 446.355 240 464S225.645 496 208 496ZM496 496C478.355 496 464 481.645 464 464S478.355 432 496 432S528 446.355 528 464S513.645 496 496 496ZM224 352H352C369.674 352 384 337.674 384 320V96C384 78.326 369.674 64 352 64H224C206.326 64 192 78.326 192 96V320C192 337.674 206.326 352 224 352ZM208 96C208 87.178 215.178 80 224 80H352C360.822 80 368 87.178 368 96V320C368 328.822 360.822 336 352 336H224C215.178 336 208 328.822 208 320V96ZM448 352H576C593.672 352 608 337.674 608 320V256C608 238.326 593.672 224 576 224H448C430.326 224 416 238.326 416 256V320C416 337.674 430.326 352 448 352ZM432 256C432 247.178 439.178 240 448 240H576C584.824 240 592 247.178 592 256V320C592 328.822 584.824 336 576 336H448C439.178 336 432 328.822 432 320V256ZM448 192H512C529.674 192 544 177.674 544 160V96C544 78.326 529.674 64 512 64H448C430.326 64 416 78.326 416 96V160C416 177.674 430.326 192 448 192ZM432 96C432 87.178 439.178 80 448 80H512C520.822 80 528 87.178 528 96V160C528 168.822 520.822 176 512 176H448C439.178 176 432 168.822 432 160V96Z"/></svg>
